!! 00000] TT[WS
!!!OTL: Da duihua
!!!ARE: Asia, China,ÿShanxi Zuoquan
!! Ethnic Group: Han
!! WI, 170 (1)
!!!SCT: J0204
!!!YEM: Copyright 1995, estate of Helmut Schaffrath.
**kern
*ICvox
*Ivox
*M2/4
*k[f#]
*G:
{8dd
8dd
8ee
8gg
=1
4dd
4b
=2
8dd
8ee
8dd
8b
=3
8a
8g
4a}
=4
{8dd
8dd
8ee
8gg
=5
4dd
4b
=6
8dd
8ee
8dd
8b
=7
8a
8g
4a}
=8
{8dd
8b
4a
=9
8g
8b
4a
=10
8dd
8b
8a
8b
=11
8g
8b
4a}
=12
{4gg
4dd
=13
8.f#
16e
4d
=14
8.g
16b
8f#
8e
=15
4.d
8r}
=16
{8.dd
16dd
8b
8dd
=17
8gg
16gg
16ee
4dd
=18
8.b
16dd
8b
8dd
=19
8.gg
16ee
4dd}
=20
{8dd
8dd
8b
8a
=21
4g
4e
=22
8.dd
16b
8a
8g
=23
2d}
==
!!!AGN: Xiaodiao, Duihua. Qingge
!!!ONB: ESAC (Essen Associative Code) Database: CHINA
!!!AMT: simple duple
!!!AIN: vox
!!!EED: Helmut Schaffrath
!!!EEV: 1.0
*-
